static/assets/images/exchanges/bitunix.svg

<svg width="325" height="256" viewBox="0 0 325 256" fill="none" xmlns="http://www.w3.org/2000/svg">
<path d="M317.875 0H160.07C141.679 0 124.623 6.20786 110.978 16.8499H164.816C234.819 16.8499 287.471 80.5543 274.271 148.988L264.334 199.834L263.444 203.972C280.537 192.171 292.347 174.199 296.369 153.866L324.697 8.27714C324.894 7.27266 324.865 6.23729 324.614 5.24505C324.362 4.25281 323.894 3.32822 323.242 2.53739C322.59 1.74657 321.771 1.10904 320.843 0.6704C319.915 0.231757 318.902 0.00283542 317.875 0Z" fill="#9DEF32"/>
<path d="M106.529 39.3164C68.8576 39.3164 36.3771 65.9215 29.2581 102.873L1.07864 247.723C0.188761 252.009 3.59995 256 7.90102 256H172.676C188.762 255.991 204.345 250.414 216.762 240.224C229.179 230.033 237.659 215.861 240.752 200.129L251.579 144.406C262.109 90.0139 220.285 39.3164 164.668 39.3164H106.529Z" fill="#9DEF32"/>
</svg>

<svg xmlns="http://www.w3.org/2000/svg" fill="none" viewBox="0 0 325 256"><path fill="#9DEF32" d="M317.875 0H160.07c-18.391 0-35.447 6.208-49.092 16.85h53.838c70.003 0 122.655 63.704 109.455 132.138l-9.937 50.846-.89 4.138c17.093-11.801 28.903-29.773 32.925-50.106L324.697 8.277a6.93 6.93 0 0 0-1.455-5.74A6.97 6.97 0 0 0 317.875 0"/><path fill="#9DEF32" d="M106.529 39.316c-37.671 0-70.152 26.605-77.27 63.557l-28.18 144.85C.189 252.009 3.6 256 7.9 256h164.775a69.56 69.56 0 0 0 44.086-15.776 69.13 69.13 0 0 0 23.99-40.095l10.827-55.723c10.53-54.392-31.294-105.09-86.911-105.09z"/></svg>
